X: 10
T: Nous sommes de l'ordre de Saint Babouin
N: Derived from Com3028-Nous_sommes_de_lordre_de_Saint_Babouin.krn
C: Loyset Comp\`ere
%%abc-version 2.0
%%abcx-abcm2ps-target-version 5.9.1 (29 Sep 2008)
%%abc-creator hum2abc beta
%%abcx-conversion-date 2019/02/16 20:28:09
%%abc-edited-by Jesse Rodin
%%abc-edited-by Megan K. Eagen 2013/12/18
%%abcx-initial-encoding-date 2013/12/18/
%%humdrum-veritas 3690079747
%%humdrum-veritas-data 1812911490
%%linebreak <none>
%%barnumbers 0
L: 1/4
M: 2/1
Q: 1/2=120
%%staves [1 2 3 4]
V: 1 clef=treble
V: 2 clef=treble-8
V: 3 clef=treble-8
V: 4 clef=bass
K: C
[V:1] z8 | 
[V:2] z8 | 
[V:3] c2c2B2c2 | 
[V:4] z8 | 
[V:1] z8 | 
[V:2] z8 | 
[V:3] d4e4 | 
[V:4] F,2F,2E,2G,2 | 
[V:1] c2c2B2c2 | 
[V:2] z8 | 
[V:3] c3B/A/G2c2 | 
[V:4] A,2F,2G,2F,2 | 
[V:1] d4e4 | 
[V:2] f2f2e2g2 | 
[V:3] c2B2c4 | 
[V:4] E,2D,2C,4 | 
[V:1] c3B/A/G2c2 | 
[V:2] a2f2g2a2 | 
[V:3] c3de2f2 | 
[V:4] F,4C2F,2 | 
[V:1] c2B2c4- | 
[V:2] g2g2e3d/c/ | 
[V:3] d4c2z2 | 
[V:4] G,4C,4- | 
[V:1] c4z4 | 
[V:2] g8 | 
[V:3] c2c2B2c2 | 
[V:4] C,4z4 | 
[V:1] z8 | 
[V:2] z8 | 
[V:3] d4e4 | 
[V:4] F,2F,2E,2G,2 | 
[V:1] c2c2B2c2 | 
[V:2] z8 | 
[V:3] c3B/A/G2c2 | 
[V:4] A,2F,2G,2E,2 | 
[V:1] d4e4 | 
[V:2] f2f2e2g2 | 
[V:3] c2B2c4 | 
[V:4] D,2D,2C,4 | 
[V:1] c3B/A/G2c2 | 
[V:2] a2f2g2a2 | 
[V:3] c3de2f2 | 
[V:4] F,4C2F,2 | 
[V:1] c2B2c2d2- | 
[V:2] g2g2e2g2- | 
[V:3] d4c2B2 | 
[V:4] G,4A,2G,2 | 
[V:1] dcc4B2 | 
[V:2] gef2g4 | 
[V:3] c4d4 | 
[V:4] A,4G,4 | 
[V:1] c4z4 | 
[V:2] e2z2c2d2 | 
[V:3] c4z4 | 
[V:4] C,4z4 | 
[V:1] z4c2d2 | 
[V:2] c2B2A2G2 | 
[V:3] z8 | 
[V:4] C2D2C2B,2 | 
[V:1] c2B2A2G2 | 
[V:2] z8 | 
[V:3] c2d2c2B2 | 
[V:4] A,2G,2z4 | 
[V:1] z8 | 
[V:2] z2g2a2g2 | 
[V:3] A2G2z4 | 
[V:4] z4z2G,2 | 
[V:1] z2G2A2G2 | 
[V:2] f2e2z4 | 
[V:3] z4z2g2 | 
[V:4] A,2G,2F,2E,2 | 
[V:1] F2E2z4 | 
[V:2] z4z2e2- | 
[V:3] a2g2f2e2 | 
[V:4] z4z2G,2- | 
[V:1] z8 | 
[V:2] e2f2e2d2 | 
[V:3] z8 | 
[V:4] G,2A,2G,2F,2 | 
[V:1] z2e4f2 | 
[V:2] e4z4 | 
[V:3] z2g4a2 | 
[V:4] E,4z4 | 
[V:1] e2d2e2z2 | 
[V:2] z4z2f2- | 
[V:3] g2f2e2z2 | 
[V:4] z4z2A,2- | 
[V:1] z8 | 
[V:2] f2e4d2 | 
[V:3] z8 | 
[V:4] A,2G,2F,4 | 
[V:1] z2f4e2- | 
[V:2] e2z2z4 | 
[V:3] z2a4g2 | 
[V:4] E,2z2z4 | 
[V:1] e2d2e4 | 
[V:2] z8 | 
[V:3] f4e4 | 
[V:4] z8 | 
[V:1] z2A6 | 
[V:2] z2e4e2 | 
[V:3] z2c4c2 | 
[V:4] z2A,4A,2 | 
[V:1] c2c2B4 | 
[V:2] e2f2g2g2 | 
[V:3] c2c2d4 | 
[V:4] A,2A,2G,4 | 
[V:1] G4A2G2 | 
[V:2] d3efge2- | 
[V:3] B4c2B2- | 
[V:4] G,4F,2G,2- | 
[V:1] B2c2d2f2 | 
[V:2] edc4B2 | 
[V:3] BAG4F2 | 
[V:4] G,2E,2D,4 | 
[V:1] e2d3cc2- | 
[V:2] c2f4e2 | 
[V:3] G2z2z4 | 
[V:4] C,2z2z4 | 
[V:1] c2B2c2z2 | 
[V:2] d4c2z2 | 
[V:3] z4z2d2- | 
[V:4] z4z2F,2- | 
[V:1] z8 | 
[V:2] z8 | 
[V:3] d2c4B2 | 
[V:4] F,2E,2D,4 | 
[V:1] z4z2d2- | 
[V:2] z4z2d2- | 
[V:3] c4z2f2- | 
[V:4] C,4z2_B,2- | 
[V:1] d2c4B2 | 
[V:2] d2efg4 | 
[V:3] f2e2d4 | 
[V:4] B,2C2G,4 | 
[V:1] c8 | 
[V:2] e8 | 
[V:3] c4z4 | 
[V:4] C,2D,2E,4 | 
[V:1] z8 | 
[V:2] z8 | 
[V:3] c2d2e4 | 
[V:4] F,4E,4 | 
[V:1] z8 | 
[V:2] z4c2d2 | 
[V:3] f4e4 | 
[V:4] D,2D,2C,2C,2 | 
[V:1] z4c2d2 | 
[V:2] e4f4 | 
[V:3] z8 | 
[V:4] z2C4B,2 | 
[V:1] e4f4 | 
[V:2] e4a2a2 | 
[V:3] z2c4d2 | 
[V:4] C4F,4 | 
[V:1] e4d2e2 | 
[V:2] g2g2f2g2 | 
[V:3] e2e2f2e2 | 
[V:4] C,4D,2C,2 | 
[V:1] f2f2e2d2 | 
[V:2] f4g2g2 | 
[V:3] d4c2B2 | 
[V:4] D,4z2G,2 | 
[V:1] e4d4 | 
[V:2] g2g2g4 | 
[V:3] c2c2d4 | 
[V:4] C,2C,2G,4 | 
[V:1] e2f2g2f2 | 
[V:2] g4z4 | 
[V:3] z4e2f2 | 
[V:4] C,4z4 | 
[V:1] d8 | 
[V:2] z8 | 
[V:3] g2f2d4 | 
[V:4] z8 | 
[V:1] z8 | 
[V:2] e2f2g2f2 | 
[V:3] z8 | 
[V:4] z4E,2F,2 | 
[V:1] z8 | 
[V:2] d8 | 
[V:3] z8 | 
[V:4] G,2F,2D,4 | 
[V:1] e2f2e2d2 | 
[V:2] G2_B2G2F2 | 
[V:3] c2d2c2B2 | 
[V:4] C,2_B,,2C,2D,2 | 
[V:1] e4c2d2 | 
[V:2] G4z4 | 
[V:3] c4e2f2 | 
[V:4] C,4C2B,2 | 
[V:1] c2B2c4 | 
[V:2] g2g2g2g2 | 
[V:3] e2d2c2G2 | 
[V:4] C2G,2C,4 | 
[V:1] z4G4 | 
[V:2] g8- | 
[V:3] c2d2e4 | 
[V:4] C,8 | 
[V:1] c4d4 | 
[V:2] g8 | 
[V:3] c4z4 | 
[V:4] z4G,4 | 
[V:1] e8 | 
[V:2] z4G4 | 
[V:3] z8 | 
[V:4] C4D4 | 
[V:1] c8 | 
[V:2] c6d2 | 
[V:3] z8 | 
[V:4] E8 | 
[V:1] z8 | 
[V:2] e8 | 
[V:3] c6d2 | 
[V:4] C4z4 | 
[V:1] z8 | 
[V:2] c4z4 | 
[V:3] e4f4 | 
[V:4] C,4D,4 | 
[V:1] z8 | 
[V:2] c4d4 | 
[V:3] e4z4 | 
[V:4] E,4F,4 | 
[V:1] c4d4 | 
[V:2] e4f4 | 
[V:3] z2c4B2 | 
[V:4] E,4D,4 | 
[V:1] e4f4 | 
[V:2] e4z4 | 
[V:3] c4d4 | 
[V:4] C,2C4B,2 | 
[V:1] e2f2g2f2 | 
[V:2] z8 | 
[V:3] e2d2e2f2 | 
[V:4] C2D2C2D2 | 
[V:1] d4c4 | 
[V:2] z4g4 | 
[V:3] g4e4 | 
[V:4] G,4C4 | 
[V:1] c4B4 | 
[V:2] g4g4 | 
[V:3] d4d4 | 
[V:4] G,4G,4 | 
[V:1] c4z2c2 | 
[V:2] e4z4 | 
[V:3] c2c2e2f2 | 
[V:4] C,4z4 | 
[V:1] e2f2gfed | 
[V:2] z8 | 
[V:3] g3fedg2- | 
[V:4] z8 | 
[V:1] e2d4c2 | 
[V:2] z8 | 
[V:3] g2f2fedc | 
[V:4] z8 | 
[V:1] c2B2c4 | 
[V:2] z8 | 
[V:3] d2d2c4 | 
[V:4] z4z2C,2 | 
[V:1] z8 | 
[V:2] z2c2e2f2 | 
[V:3] z8 | 
[V:4] E,2F,2G,3F, | 
[V:1] z8 | 
[V:2] gfede2d2- | 
[V:3] z8 | 
[V:4] E,D,G,4F,2- | 
[V:1] z8 | 
[V:2] d2c2c2B2 | 
[V:3] z8 | 
[V:4] F,E,D,C,D,2D,2 | 
[V:1] c2d2e2g2 | 
[V:2] c2z2z4 | 
[V:3] z4z2c2 | 
[V:4] C,2B,,B,,C,2E,2 | 
[V:1] f2e2d4 | 
[V:2] z8 | 
[V:3] d2e2g2f2 | 
[V:4] D,2C,2G,2z2 | 
[V:1] z8 | 
[V:2] c2d2e2g2 | 
[V:3] e2d2z4 | 
[V:4] z4z2C,2 | 
[V:1] z8 | 
[V:2] f2e2d4 | 
[V:3] z8 | 
[V:4] D,2E,2G,2F,2 | 
[V:1] g2f2e2d2 | 
[V:2] z8 | 
[V:3] z4g2f2 | 
[V:4] E,2D,2z4 | 
[V:1] g2f2e2d2 | 
[V:2] z8 | 
[V:3] e2d2g2f2 | 
[V:4] z8 | 
[V:1] z8 | 
[V:2] z4g2f2 | 
[V:3] e2d2z4 | 
[V:4] G,2F,2E,2D,2 | 
[V:1] z8 | 
[V:2] e2d2g2f2 | 
[V:3] z4c2d2 | 
[V:4] G,2F,2E,2D,2 | 
[V:1] z8 | 
[V:2] e2d2c2d2 | 
[V:3] e2f2e2z2 | 
[V:4] C,2D,2E,2F,2 | 
[V:1] c2d2e2f2 | 
[V:2] e2f2e2z2 | 
[V:3] c2B2c2d2 | 
[V:4] D,2D,2C,C2B, | 
[V:1] efgfd2c2 | 
[V:2] z4z2g2 | 
[V:3] edefg2e2 | 
[V:4] CDCDG,2C2 | 
[V:1] c2B2c4- | 
[V:2] g2g2e4- | 
[V:3] d2d2c4- | 
[V:4] G,2G,2C,4- | 
[V:1] c8 |]  
[V:2] e2f2g4 |]  
[V:3] c8 |]  
[V:4] C,8 |]  



